X:1402
T:Grant's Reel
P:Grant's Reel
C:Rutherford
R:Strathspey (8x32)
B:RSCDS 14-2
Z:Anselm Lingnau <anselm@strathspey.org>
M:4/4
L:1/8
K:C
E|"C"C>E G>E c>G A>G|"Dm"F>d "C"E>c "G"dD DE|\
  "C"C>E G>E c>G A>G|F>D "G7"G>F "C"EC C E|
  "C"C>E G>E c>G A>G|"Dm"F>d "C"E>c "G"dD DE|\
  "C"C>E G>E c>G A>G|F>D "G7"G>F "C"EC C||
f|"C"g>e c>e g/f/e/f/ ge|"F"f>a "C"g>e g>d "G"d>g|\
  "C"g>e c>e g/f/e/f/ g>e|"F"fd "G"gf "C"e<c c>e|
  "C"g>e c>e g>a g>e|g>e "F"g>f "C"e<d "G"d>f|\
  "C"g>e "G7"f>d "C"e>c "G"d>B|"Am"c/B/A/B/ "C"c>G E<C C|]
